svg/rhombus_split_outline.svg

<svg xmlns="http://www.w3.org/2000/svg" viewBox="0 0 24 24"><path d="M12 2c-.5 0-1 .19-1.41.59l-8 8c-.79.78-.79 2.04 0 2.82l8 8c.78.79 2.04.79 2.82 0l8-8c.79-.78.79-2.04 0-2.82l-8-8C13 2.19 12.5 2 12 2m0 2 3.29 3.29-3.29 3.3-3.29-3.3zM7.29 8.71l3.3 3.29-3.3 3.29L4 12zm9.42 0L20 12l-3.29 3.29-3.3-3.29zM12 13.41l3.29 3.3L12 20l-3.29-3.29z"/></svg>

<?xml version="1.0" encoding="UTF-8"?><!DOCTYPE svg PUBLIC "-//W3C//DTD SVG 1.1//EN" "http://www.w3.org/Graphics/SVG/1.1/DTD/svg11.dtd"><svg xmlns="http://www.w3.org/2000/svg" xmlns:xlink="http://www.w3.org/1999/xlink" version="1.1" id="mdi-rhombus-split-outline" width="24" height="24" viewBox="0 0 24 24"><path d="M12 2C11.5 2 11 2.19 10.59 2.59L2.59 10.59C1.8 11.37 1.8 12.63 2.59 13.41L10.59 21.41C11.37 22.2 12.63 22.2 13.41 21.41L21.41 13.41C22.2 12.63 22.2 11.37 21.41 10.59L13.41 2.59C13 2.19 12.5 2 12 2M12 4L15.29 7.29L12 10.59L8.71 7.29L12 4M7.29 8.71L10.59 12L7.29 15.29L4 12L7.29 8.71M16.71 8.71L20 12L16.71 15.29L13.41 12L16.71 8.71M12 13.41L15.29 16.71L12 20L8.71 16.71L12 13.41Z" /></svg>
